!!!!SEGMENT: pl-wumfc--n50515--004_moniuszko-stanislaw--lirnik-wioskowy-liro-ty-moja-spiewna.krn
!!!cenid: 18xx:4130
!!!COM: Moniuszko, Stanisław
!!!COM-rismID: pe30008351
!!!CDT: 1819/05/05-1872/06/04
!!!CNT: Polish
!!!GTL: Lirnik wioskowy/Liro ty moja śpiewna
!!!OTL: [work 4]
!!!PDT:
!!!AGN:
!!!SMS-siglum: PL-Wumfc
!!!SMS-shelfmark: N50515
!!!SMS-shelfwork: 004 G
!!!SMS-variant:
!!!SMS-altvar:
!!!NIFC-rismSourceID: 1001166115
!!!NIFC-rismChildID: 1001166115
!!!NIFC-islandoraID: pl-wumfc:6615
!!!URL-pdf-islandora: https://repozytorium.nifc.pl/islandora/object/pl-wumfc%3A6615/datastream/PDF/view
!!!URL-scan: https://polish.musicsources.pl/pl/lokalizacje/galeria/druki-muzyczne/12529/14 @EN{Scan on Polish Music Sources Website} @PL{Skany w portalu Dziedzictwo Muzyki Polskiej w otwartym dostępie}
!!!ONB-nifc: UWAGA: pieśń nr 4, str. 14-16
!!!AIN: 1 piano 1 soprn
!!!key: C
**kern	**kern	**dynam	**kern	**text	**dynam
*part2	*part2	*part2	*part1	*part1	*part1
*staff3	*staff2	*	*staff1	*staff1	*
*I"	*I"	*	*	*	*
*Ipiano	*Ipiano	*	*Isoprn	*	*
*ICklav	*ICklav	*	*ICvox	*	*
*IGacmp	*IGacmp	*	*IGsolo	*	*
*clefF4	*clefG2	*	*clefG2	*	*
*k[]	*k[]	*	*k[]	*	*
*C:	*C:	*	*C:	*	*
*M2/4	*M2/4	*	*M2/4	*	*
=1	=1	=1	=1	=1	=1
*MM120	*MM120	*	*MM120	*	*
!!LO:TX:B:a:t=Allegro.
!	!	!	!LO:TX:i:a:t=[quarter]=120	!	!
8cL 8G 8E 8C'\	4r	f	2r	.	.
8c 8G 8E 8C'\	.	.	.	.	.
8c 8G 8E 8C'\	16cc'\LL	.	.	.	.
.	16dd'\	.	.	.	.
8cJ 8G 8E 8C'\	16ee'\	.	.	.	.
.	16ff'\JJ	.	.	.	.
=2	=2	=2	=2	=2	=2
8cL 8G 8E 8C'\	4gg 4g^^\	.	2r	.	.
8c 8G 8E 8C'\	.	.	.	.	.
8c 8A 8F 8C'\	8aaL 8a'\	.	.	.	.
8GJ 8F 8C'\	8bbJ 8b'\	.	.	.	.
=3	=3	=3	=3	=3	=3
8G 8E 8C\	8ccc 8cc'\	.	2r	.	.
8EL 8EE^^/	8ccc#XL 8bb-X 8gg 8cc#X^^\	.	.	.	.
8F 8FF^^/	8ddd 8bbn 8gg#X 8dd^^\	.	.	.	.
8F#XJ 8FF#X^^/	8ddd#XJ 8cccn 8aa 8dd#X^^\	.	.	.	.
=4	=4	=4	=4	=4	=4
4G 4GG^^/	4eee 4ccc#X 4aa#X 4ee^^\	.	2r	.	.
8GG^^\L	8dddL 8bb 8gg 8ff^^\	.	.	.	.
8BJ 8G'\	8ggJ 8ff'\	.	.	.	.
!!LO:LB:g=original
=5	=5	=5	=5	=5	=5
8c 8G 8C\	8ccc' 8gg 8ee\	.	4r	.	.
8GL 8E 8C'\	8r	p	.	.	.
8G 8E 8C'\	16c'/LL	.	16c/LL	Li-	.
.	16d'/	.	16d/JJ	.	.
8GJ 8E 8C'\	16e'/	.	16e/LL	-ro	.
.	16f'/JJ	.	16f/JJ	.	.
=6	=6	=6	=6	=6	=6
*	*^	*	*	*	*
8GL 8C'\	(4g^^/	8e\L	.	4g/	ty	.
8G 8C'\	.	8e\	.	.	.	.
!	!	!	!	!	!	!LO:DY:a
8G 8C'\	8f'/L)	8d\	.	8a/	mo-	<
8GJ 8C'\	8f'/J	8d\J	.	8b\	-ja	.
=7	=7	=7	=7	=7	=7	=7
8GL 8C'\	8eL 8c'/	4ryy	.	8cc\	śpiew-	.
8c 8C'\	8gJ 8e'/	.	.	8g/	-na	.
8A 8C'\	16a'>/LL	8f\L	.	16a/LL	z cza-	.
.	16b'>/	.	.	16b/JJ	.	.
8AJ 8C'\	16cc'>/	8f\J	.	16cc\LL	-ro-	.
.	16dd'>/JJ	.	.	16dd\JJ	.	[[
=8	=8	=8	=8	=8	=8	=8
!	!	!	!	!	!	!LO:DY:a
8GL 8C'\	(4ee^^/	8e\L	.	4ee\	-dziejs-	>
8G 8C'\	.	8e'>\	.	.	.	.
8G#X 8E'\	8b/L)	8d\	.	8dd\	-kie-	.
8G#J 8E'\	8e/J	8d\J	.	8b\	-go	]]
*	*v	*v	*	*	*	*
=9	=9	=9	=9	=9	=9
8A'\L	8ccL 8e 8c'</	.	8cc\	drew-	.
8Gn'\	8b 8e'</	.	8b\	-na!	.
8F#X'\	8a 8e'</	.	8a/	lu-	.
8D'\J	8ddJ 8d'</	.	8dd\	-dzie	.
!!LO:LB:g=original
=10	=10	=10	=10	=10	=10
8G\	8r	.	4b\	łza-	.
8r	8b 8g 8d/	.	.	.	.
8D\	8r	.	16a/LL	-mi	.
.	.	.	16g/JJ	.	.
8r	8a 8f#X 8d 8c/	.	16a/LL	mnie	.
.	.	.	16b/JJ	.	.
=11	=11	=11	=11	=11	=11
8GG\	8r	.	8g/	po-	.
8r	8g 8d 8B/	.	8d/	-ją!	.
8AA'\L	8fn'>/L	.	4r	.	.
8AA'\J	8cJ 8F<'>/	.	.	.	.
=12	=12	=12	=12	=12	=12
*	*^	*	*	*	*
4GG^^>\	4e^/	8r<	.	2r	.	.
!	!LO:TX:i:b:t=m.d.	!	!	!	!	!
.	.	8c< 8G</	.	.	.	.
.	8qe/	.	.	.	.	.
8GGG'>\L	(16d/LL	8r<	.	.	.	.
.	16c/)	.	.	.	.	.
8GG'>\J	16d'/	8B< 8F<'/	.	.	.	.
.	16e'/JJ	.	.	.	.	.
*	*v	*v	*	*	*	*
=13	=13	=13	=13	=13	=13
8CC'\	8c 8E</	.	4r	.	.
8GL 8E 8C'\	8r	.	.	.	.
8G 8E 8C'\	16c'/LL	.	16c/LL	Dla	.
.	16d'/	.	16d/JJ	.	.
8GJ 8E 8C'\	16e'/	.	16e/LL	mnie	.
.	16f'/JJ	.	16f/JJ	.	.
=14	=14	=14	=14	=14	=14
*	*^	*	*	*	*
8GL 8C'\	(4g^^/	8e\L	.	4g/	tyś	.
8G 8C'\	.	8e\	.	.	.	.
8G 8C'\	8a'/L)	8f\	.	8a/	ul-	.
8GJ 8C'\	8bJ 8f'/	8d\J	.	8b\	-gą	.
!!LO:PB:g=original
=15	=15	=15	=15	=15	=15	=15
8GL 8C'\	8cc'/L	8e\L	.	8cc\	Bo-	.
8cJ 8C'\	8g'/J	8e\J	.	8g/	-żą	.
!	!	!	!	!	!	!LO:DY:a
8AL 8C'\	16a'/LL	8f\L	.	16a/LL	a	<
.	16b'/	.	.	16b/JJ	.	.
8AJ 8C'\	16cc'/	8f\J	.	16cc\LL	gdy	.
.	16dd'/JJ	.	.	16dd\JJ	.	[[
=16	=16	=16	=16	=16	=16	=16
!	!	!	!	!	!	!LO:DY:a
8GL 8C'\	(4ee^^/	8e\L	.	4ee\	mnie	>
8cJ 8G'\	.	8e\J	.	.	.	.
8G#XL 8E'\	8dd/L)	8e\L	.	8dd\	w grób	]
8BJ 8G#'\	8e/J	8d\J	.	8b\	po-	.
=17	=17	=17	=17	=17	=17	=17
*^	*	*	*	*	*	*
8ryy	8A'\	8cc/	8e\	.	8.cc\L	-ło-	.
4c/	(>16A\LL	(16cc/LL	(>8e\L	.	.	.	.
.	16Gn\J	16b/J	.	.	16b\Jk	.	.
.	8F#X\J)	8a/J)	8d\J)	.	8a/	-żą,	.
8A/	8D\	8dd/	8f#X'>\	.	8dd\	ty	.
*v	*v	*	*	*	*	*	*
*	*v	*v	*	*	*	*
=18	=18	=18	=18	=18	=18
8G\	8r	.	8b\	bę-	.
8r	8b 8g 8d'/	.	8b\	-dziesz	.
.	.	.	8qb/	.	.
8D\	8r	.	16a/LL	chlu-	.
.	.	.	16g/JJ	.	.
8r	8a 8f#X 8c'/	.	16a/LL	-bą	.
.	.	.	16b/JJ	.	.
=19	=19	=19	=19	=19	=19
8E'\L	8gL 8B'/	.	8g/	mo-	.
8BB'\	8dJ 8G'/	.	8d/	-ją.	.
8C'\	8e'/L	.	4r	.	.
8AA'\J	8aJ 8c'/	.	.	.	.
!!LO:LB:g=original
=20	=20	=20	=20	=20	=20
*	*^	*	*	*	*
8D\	4g^^/	8r	.	2r	.	.
8r	.	8d 8B\	.	.	.	.
.	8qg/	.	.	.	.	.
8DD/	(16f#X/LL	8r	.	.	.	.
.	16e/)	.	.	.	.	.
8r	16f#'/	8c 8A\	.	.	.	.
.	16a'/JJ	.	.	.	.	.
*	*v	*v	*	*	*	*
=21	=21	=21	=21	=21	=21
8GG'\L	4g 4B/	.	4r	.	.
8G'\	.	.	.	.	.
!	!	!	!	!	!LO:DY:a
8G'\	4r	.	8g/	Ej	mf
8G'\J	.	.	8dd\	roz-	.
=22	=22	=22	=22	=22	=22
!	!	!	!	!	!LO:DY:a
8GG'\L	(4cc 4e-X^/	.	4cc\	-głoś-	>
8G'\	.	.	.	.	.
8G'\	8b-XL 8d/	.	8b-X\	-nie,	.
8G'\J	8aJ 8c/	.	8a/	roz-	]]
=23	=23	=23	=23	=23	=23
*	*^	*	*	*	*
8GG'\L	4.g/	4.B-X\	.	8b-X\	-głoś-	.
8G'\	.	.	.	8g/	-nie,	.
8G'\	.	.	.	8b-\	two-	.
8G'\J	8g/)	8ryy	.	8dd\	-je	.
=24	=24	=24	=24	=24	=24	=24
!	!	!	!	!	!	!LO:DY:a
8GG'\L	[2g/	(4e-X^\	.	8dd\L	e-	>
8G'\	.	.	.	8cc\J	.	.
8G'\	.	8d\L	.	8b-X\	-cho	]
8G'\J	.	8c\J	.	8a/	u-	.
!!LO:LB:g=original
=25	=25	=25	=25	=25	=25	=25
(8GG/L	2g/]	4B-X\	.	8b-X\	-roś-	.
8D/)	.	.	.	8g/	-nie	.
8BB-X'/	.	4d\)	.	8g/	z ol-	.
8GG'/J	.	.	.	8b-\	-brzy-	.
*	*v	*v	*	*	*	*
=26	=26	=26	=26	=26	=26
!	!LO:TX:i:b:t=rallent.	!	!	!	!
2C/	(>2a-X 2e-X 2c/	.	4a-X/	-mie-	.
!	!	!	!LO:TX:i:a:t=rallent.	!	!
.	.	.	8g/	-ją	.
.	.	.	8a-/	me	.
=27	=27	=27	=27	=27	=27
2D\	2a-X 2f 2B-X/	.	(4.cc\	sło-	.
.	.	.	16b-X/LL	.	.
.	.	.	16a-X/JJ)	.	.
=28	=28	=28	=28	=28	=28
!	!LO:TX:B:a:t=a tempo Io.	!	!LO:TX:B:a:t=a tempo Io.	!	!
(8EE-X/L	4.g 4.G^/)	.	4g/	-wa;	.
8BB-X/	.	.	.	.	.
8E-X/)	.	.	4r	.	.
8D'/J	8f#X 8A'/	.	.	.	.
=29	=29	=29	=29	=29	=29
8GG'\L	8fnL 8Bn'/	.	4r	.	.
8C'\	8e 8c'/	.	.	.	.
!	!	!	!	!	!LO:DY:a
8BB\	8d 8E</	.	8g/	pój-	p
8AA\J	8cJ 8F#X</	.	8a/	-dą	.
!!LO:LB:g=original
=30	=30	=30	=30	=30	=30
4GG\	8r<	p	4bn\	z kra-	.
.	8B<L 8G< 8D</	.	.	.	.
4r	8B< 8G< 8D</	.	8cc\	-ju	.
.	8B<J 8G< 8D</	.	8dd\	do	.
=31	=31	=31	=31	=31	=31
!	!	!	!	!	!LO:HP:a:t=cre-scen-do:ext2=cd
4DD\	8r<	.	8dd\	Kra-	<
.	8d<L 8A< 8F</	.	8a/	-ju,	.
!	!	!LO:HP:b:t=cre-scen-do:ext2=cd	!	!	!
4r	8d< 8A< 8F</	<	8a/	do	.
.	8d<J 8A< 8F</	.	8b\	sa-	.
=32	=32	=32	=32	=32	=32
4AA\	8r<	.	4cc\	-me-	.
.	8c<L 8A< 8E</	.	.	.	.
4r	8c< 8A< 8E</	.	8dd\	-go	.
.	8c<J 8A< 8E</	.	8ee\	Du-	.
=33	=33	=33	=33	=33	=33
8EE\	8r<	.	8ee'\	-na-	.
8r	8e< 8B< 8G</	.	8b'\	-ju,	.
8FF\	8r<	.	8dd'\	do	.
8r	8d< 8A< 8F</	.	8a'/	sa-	.
=34	=34	=34	=34	=34	=34
8GG\	8r<	.	4cc^\	-me-	.
8r	8c< 8G< 8E</	[	.	.	.
8GG\	8r<	.	8b\	-go	.
8r	8B< 8G< 8D</	.	8b\	Ki-	[[
!!LO:PB:g=original
=35	=35	=35	=35	=35	=35
!	!	!	!	!	!LO:DY:a
8C'<\L	8r	f	8cc\	-jo-	f
8EE'<\	8c<L 8G</	.	8ee\	-wa,	.
8FF'<\	8d< 8A</	.	16dd\LL	do	.
.	.	.	16cc\JJ	.	.
8DD'<\J	8fJ 8d 8A</	.	16b/LL	sa-	.
.	.	.	16a/JJ	.	.
=36	=36	=36	=36	=36	=36
4GG\	4e 4c 4G<^^/	.	4g/	-me-	.
8GGL 8GGG\	8fL 8d 8G<'>/	.	8f/	-go	.
8GG\J	8dJ 8B< 8G< 8F<'>/	.	8d/	Ki-	.
=37	=37	=37	=37	=37	=37
8C\ 8CC\	8c 8G< 8E</	.	8c/	-jo-	.
8cL 8G 8E 8C'\	8r	.	8c/	-wa.	.
8c 8G 8E 8C'\	16cc'\LL	f	4r	.	.
.	16dd'\	.	.	.	.
8cJ 8G 8E 8C'\	16ee'\	.	.	.	.
.	16ff'\JJ	.	.	.	.
=38	=38	=38	=38	=38	=38
8cL 8G 8E 8C'\	4gg 4g^^\	.	2r	.	.
8c 8G 8E 8C'\	.	.	.	.	.
8c 8A 8F 8C'\	8aaL 8a'\	.	.	.	.
8GJ 8F 8C'\	8bbJ 8b'\	.	.	.	.
=39	=39	=39	=39	=39	=39
8G 8E 8C'\	8ccc 8cc'\	.	2r	.	.
8EL 8EE^^</	8ccc#XL 8bb-X 8gg 8cc#X^^\	.	.	.	.
8F 8FF^^</	8ddd 8bbn 8gg#X 8dd^^\	.	.	.	.
8F#XJ 8FF#X^^</	8ddd#XJ 8cccn 8aa 8dd#X^^\	.	.	.	.
!!LO:LB:g=original
=40	=40	=40	=40	=40	=40
4G 4GG^^</	4eee 4ccc#X 4aa#X 4ee^^\	.	2r	.	.
8GG^^\L	8dddL 8bb 8gg 8ff'^^\	.	.	.	.
8BJ 8G'\	8ggJ 8ff'\	.	.	.	.
=41	=41	=41	=41	=41	=41
8c 8G 8C'\	8ccc 8gg 8ee'\	.	4r	.	.
8GL 8E 8C'\	8r	p	.	.	.
!	!	!	!	!	!LO:DY:a
8G 8E 8C'\	16c'/LL	.	16c/LL	Kie-	mf
.	16d'/	.	16d/JJ	.	.
8GJ 8E 8C'\	16e'/	.	16e/LL	-dyś	.
.	16f'/JJ	.	16f/JJ	.	.
=42	=42	=42	=42	=42	=42
*	*^	*	*	*	*
8GL 8C'\	(4g^^/	8e\L	.	4g/	w o-	.
8G 8C'\	.	8e\	.	.	.	.
8G 8C'\	8f'/L)	8d\	.	8a/	-kna	.
8GJ 8C'\	8f'/J	8d\J	.	8b\	są-	.
=43	=43	=43	=43	=43	=43	=43
8GL 8C'\	8eL 8c'/	4ryy	.	8cc\	-sia-	.
!	!	!	!	!	!	!LO:DY:a
8cJ 8C'\	8gJ 8e'/	.	.	8g/	-da	<
8AL 8C'\	16a'/LL	8f\L	.	16a/LL	cu-	.
.	16b'/	.	.	16b/JJ	.	.
8AJ 8C'\	16cc'/	8f\J	.	16cc\LL	-dzych	.
.	16dd'/JJ	.	.	16dd\JJ	.	[[
!!LO:LB:g=original
=44	=44	=44	=44	=44	=44	=44
!	!	!	!	!	!	!LO:DY:a
8GL 8C'\	(4ee^^/	8e\L	.	4ee\	lu-	>
8G 8C'\	.	8e\	.	.	.	.
8G#X 8E'\	8b/L)	8d\	.	8dd\	-dzi	]
8G#J 8E'\	8e/J	8d\J	.	8b\	gro-	.
*	*v	*v	*	*	*	*
=45	=45	=45	=45	=45	=45
8A'\L	8ccL 8e 8c'/	.	(8cc\L	-ma-	.
8Gn'\	8b 8e'/	.	8b\J)	.	.
8F#X'\	8a 8e'/	.	8a/	-da	.
8D'\J	8ddJ 8d'/	.	8dd\	cie-	.
=46	=46	=46	=46	=46	=46
8G\	8r	.	8b\	-ka-	.
8r	8b 8g 8d/	.	8b\	-wie	.
8D\	8r	.	16a/LL	za-	.
.	.	.	16g/JJ	.	.
8r	8a 8f#X 8d 8c/	.	16a/LL	-ko-	.
.	.	.	16b/JJ	.	.
=47	=47	=47	=47	=47	=47
8GG\	8r	.	8g/	-ła-	.
8r	8g 8d 8B/	.	8g/	-ta:	.
8AA'\L	8fn'>/L	.	4r	.	.
8AA'\J	8cJ 8F<'>/	.	.	.	.
!!LO:LB:g=original
=48	=48	=48	=48	=48	=48
*	*^	*	*	*	*
4GG^^>\	4e^/	8r<	.	2r	.	.
.	.	8c< 8G</	.	.	.	.
.	8qe/	.	.	.	.	.
8GGG'>\L	(16d/LL	8r<	.	.	.	.
.	16c/)	.	.	.	.	.
8GG'>\J	16d'/	8B< 8F</	.	.	.	.
.	16e'/JJ	.	.	.	.	.
*	*v	*v	*	*	*	*
=49	=49	=49	=49	=49	=49
8CC'\	8c 8E</	.	4r	.	.
8GL 8E 8C'\	8r	.	.	.	.
8G 8E 8C'\	16c'/LL	.	16c/LL	„przy-	.
.	16d'/	.	16d/JJ	.	.
8GJ 8E 8C'\	16e'/	.	16e/LL	-szliś-	.
.	16f'/JJ	.	16f/JJ	.	.
=50	=50	=50	=50	=50	=50
*	*^	*	*	*	*
8GL 8C'\	(4g^^/	8e\L	.	4g/	-my	.
8G 8C'\	.	8e\	.	.	.	.
8G 8C'\	8a'/L)	8f\	.	8a/	pa-	.
8GJ 8C'\	8b'/J	8fJ 8d\	.	8b\	-trzeć	.
=51	=51	=51	=51	=51	=51	=51
8GL 8C'\	8cc'/L	8e\L	.	8cc\	dzi-	.
8c 8C'\	8g'/J	8e\J	.	8g/	-wa	.
!	!	!	!	!	!	!LO:DY:a
8A 8C'\	16a'/LL	8f\L	.	16a/LL	gdzie	<
.	16b'/	.	.	16b/JJ	.	.
8AJ 8C'\	16cc'/	8f\J	.	16cc\LL	wasz	.
.	16dd'/JJ	.	.	16dd\JJ	.	[[
!!LO:PB:g=original
=52	=52	=52	=52	=52	=52	=52
!	!	!	!	!	!	!LO:DY:a
8GL 8C'\	(4ee^^/	8e\L	.	4ee\	lir-	>
8cJ 8G'\	.	8e\	.	.	.	.
8G#XL 8E\	8dd'/L)	8e\	.	8dd\	-nik	]
8BJ 8G#'\	8e'/J	8d\J	.	8b\	spo-	.
=53	=53	=53	=53	=53	=53	=53
*^	*	*	*	*	*	*
8ryy	8A\	8cc'/	8e\	.	8cc\	-czy-	.
4c/	(>16A\LL	(16cc/LL	(>8e\L	.	16cc\LL	-wa,	.
.	16Gn\J	16b/J	.	.	16b\JJ	.	.
.	8F#X\J)	8a/J)	8d\J)	.	8a/	lir-	.
8A/	8D\	8dd/	8f#X'>\	.	8dd\	-nik	.
*v	*v	*	*	*	*	*	*
*	*v	*v	*	*	*	*
=54	=54	=54	=54	=54	=54
8G\	8r	.	4b\	głoś-	.
8r	8b 8g 8d'/	.	.	.	.
8D\	8r	.	16a/LL	-ny	.
.	.	.	16g/JJ	.	.
!	!LO:SIC:v:n=2:s=8f#	!	!	!	!
8r	8a 8f 8c'/	.	16a/LL	u-	.
.	.	.	16b/JJ	.	.
=55	=55	=55	=55	=55	=55
8E'\L	8gL 8B'/	.	8g/	-świa-	.
8BB'\	8dJ 8G'/	.	8d/	-ta.”	.
8C'\	8e'/L	.	4r	.	.
8AA'\J	8aJ 8c'/	.	.	.	.
!!LO:LB:g=original
=56	=56	=56	=56	=56	=56
*	*^	*	*	*	*
8D'\	4g^^/	8r	.	2r	.	.
8r	.	8d 8B\	.	.	.	.
.	8qg/	.	.	.	.	.
8DD'/	(16f#X/LL	8r	.	.	.	.
.	16e/)	.	.	.	.	.
8r	16f#'/	8c 8A\	.	.	.	.
.	16a'/JJ	.	.	.	.	.
*	*v	*v	*	*	*	*
=57	=57	=57	=57	=57	=57
8GG'\L	4g 4B/	.	4r	.	.
8G'\	.	.	.	.	.
!	!	!	!	!	!LO:DY:a
8G'\	4r	.	8g/	Wte-	mf
8G'\J	.	.	8dd\	-dy	.
=58	=58	=58	=58	=58	=58
!	!	!	!	!	!LO:HP:a
8GG'\L	(4cc 4e-X^/	.	4cc\	z ca-	>
8G'\	.	.	.	.	]
8G'\	8b-XL 8d/	.	8b-X\	-łe-	.
8G'\J	8aJ 8c/	.	8a/	-go	.
=59	=59	=59	=59	=59	=59
*	*^	*	*	*	*
8GG'\L	4.g/	4.B-X\	.	8b-X/L	sio-	.
8G'\	.	.	.	8g/J	.	.
8G'\	.	.	.	8b-\	-ła	.
8G'\J	8g/)	8ryy	.	8dd\	cie-	.
!!LO:LB:g=original
=60	=60	=60	=60	=60	=60	=60
8GG'\L	[2g/	(4e-X^\	.	8.dd^\	-ka-	.
8G'\	.	.	.	.	.	.
.	.	.	.	16cc\	-wość	.
8G'\	.	8d\L	.	8b-X\	lud	.
8G'\J	.	8c\J	.	8a/	wy-	.
=61	=61	=61	=61	=61	=61	=61
(8GG/L	2g/]	4B-X\	.	4b-X\	-wo-	.
8D/)	.	.	.	.	.	.
8BB-X'/	.	4d\)	.	8g/	-ła,	.
8GG'/J	.	.	.	8b-/	i	.
*	*v	*v	*	*	*	*
=62	=62	=62	=62	=62	=62
!	!LO:TX:i:b:t=rallent.	!	!	!	!LO:DY:a
2C/	(>2a-X 2e-X 2c/	.	(4a-X/	bę-	p
!	!	!	!LO:TX:i:a:t=rallent.	!	!
.	.	.	8g/)	.	.
.	.	.	8a-/	-dą	.
=63	=63	=63	=63	=63	=63
2D\	2a-X 2f 2B-X/	.	(4.cc\	czy-	.
.	.	.	16b-X/LL)	.	.
.	.	.	16a-X/JJ	-nić	.
=64	=64	=64	=64	=64	=64
!	!LO:TX:B:a:t=a tempo Io.	!	!LO:TX:B:a:t=a tempo Io.	!	!
(8EE-X^/L	4.g 4.G/)	.	8g/	wnios-	.
8BB-X/	.	.	8g/	-ki,	.
8E-X/)	.	.	4r	.	.
8D'/J	8f#X 8A'/	.	.	.	.
!!LO:LB:g=original
=65	=65	=65	=65	=65	=65
8GG'\L	8fnL 8Bn'/	.	4r	.	.
8C'\	8e 8c'/	.	.	.	.
!	!	!	!	!	!LO:DY:a
8BB\	8d 8E</	.	8g/	szep-	p
8AA\J	8cJ 8F#X</	.	8a/	-tać	.
=66	=66	=66	=66	=66	=66
4GG\	8r<	p	4bn\	ści-	.
.	8B<L 8G< 8D</	.	.	.	.
4r	8B< 8G< 8D</	.	8cc\	-ska-	.
.	8B<J 8G< 8D</	.	8dd\	-jąc	.
=67	=67	=67	=67	=67	=67
4DD\	8r<	.	8dd\	ple-	.
.	8d<L 8A< 8F</	.	8a/	-cy:	.
!	!	!LO:HP:b:t=cre-scen-do:ext2=cd	!	!	!
4r	8d< 8A< 8F</	<	8.a/	„skąd	.
.	8d<J 8A< 8F</	.	.	.	.
.	.	.	16b\	ci	.
=68	=68	=68	=68	=68	=68
4AA\	8r<	.	4cc\	lu-	.
.	8c<L 8A< 8E</	.	.	.	.
4r	8c< 8A< 8E</	.	8dd\	-dzie	.
.	8c<J 8A< 8E</	.	8ee\	da-	.
!!LO:PB:g=original
=69	=69	=69	=69	=69	=69
!	!	!	!	!	!LO:DY:a
8EE\	8r<	.	8ee'\	-le-	pp
8r	8e< 8B< 8G</	.	8b'\	-cy	.
8FF\	8r<	.	8dd'\	zna-	.
8r	8d< 8A< 8F</	.	8a'/	-ją	.
=70	=70	=70	=70	=70	=70
8GG\	8r<	.	4cc\	pieś-	.
8r	8c< 8G< 8E</	[	.	.	.
8GG\	8r<	.	8b\	-ni	.
8r	8B< 8G< 8D</	.	8b\	tej	.
=71	=71	=71	=71	=71	=71
8C\L	8r	f	8cc\	wios-	.
8EE'>\	8c<L 8G</	.	8ee\	-ki,	.
8FF'>\	8d< 8A</	.	16dd\LL	zna-	.
.	.	.	16cc\JJ	.	.
8DD'>\J	8fJ 8d 8A</	.	16b/LL	-ją	.
.	.	.	16a/JJ	.	.
=72	=72	=72	=72	=72	=72
4GG\	4e 4c 4G<^^/	.	4g^>/	pie-	.
8GGL 8GGG\	8fL 8d 8G<'>/	.	8f/	-śni	.
8GG\J	8dJ 8B 8G< 8F<'>/	.	8d/	tej	.
=73	=73	=73	=73	=73	=73
8C 8CC\	8c 8G< 8E</	.	8c/	wios-	.
8cL 8G 8E 8C'>\	8r	f	8c/	-ki?”	.
8c 8G 8E 8C'>\	16cc'\LL	.	4r	.	.
.	16dd'\	.	.	.	.
8cJ 8G 8E 8C'>\	16ee'\	.	.	.	.
.	16ff'\JJ	.	.	.	.
!!LO:LB:g=original
=74	=74	=74	=74	=74	=74
8cL 8G 8E 8C'\	4gg 4g^^\	.	2r	.	.
8c 8G 8E 8C'\	.	.	.	.	.
8c 8A 8F 8C'\	8aaL 8a'\	.	.	.	.
8GJ 8F 8C'\	8bbJ 8b'\	.	.	.	.
=75	=75	=75	=75	=75	=75
8G 8E 8C'\	8ccc 8cc\	.	2r	.	.
8EL 8EE^^</	8ccc#XL 8bb-X 8gg 8cc#X^^\	.	.	.	.
8F 8FF^^</	8ddd 8bbn 8gg#X 8dd^^\	.	.	.	.
8F#XJ 8FF#X^^</	8ddd#XJ 8cccn 8aa 8dd#X^^\	.	.	.	.
=76	=76	=76	=76	=76	=76
4G 4GG^^/	4eee 4ccc#X 4aa#X 4ee^^\	.	2r	.	.
8GG^^\L	8dddL 8bb 8gg 8ff^^\	.	.	.	.
8BJ 8G'\	8ggJ 8ff'\	.	.	.	.
=77	=77	=77	=77	=77	=77
8c 8G 8C'\	8ccc 8gg 8ee'\	.	4r	.	.
8GL 8E 8C'\	8r	p	.	.	.
!	!	!	!	!	!LO:DY:a
8G 8E 8C'\	16c'/LL	.	16c/LL	Wios-	f
.	16d'/	.	16d/JJ	.	.
8GJ 8E 8C'\	16e'/	.	16e/LL	-ce	.
.	16f'/JJ	.	16f/JJ	.	.
=78	=78	=78	=78	=78	=78
*	*^	*	*	*	*
8GL 8C'\	(4g^^/	8e\L	.	4g^>/	chlu-	.
8G 8C'\	.	8e\	.	.	.	.
8G 8C'\	8f'/L)	8d\	.	8a/	-ba	.
8GJ 8C'\	8f'/J	8d\J	.	8b\	u-	.
!!LO:LB:g=original
=79	=79	=79	=79	=79	=79	=79
8GL 8C'>\	8eL 8c'/	4ryy	.	8cc\	-ras-	.
8cJ 8C'>\	8gJ 8e'/	.	.	8g/	-ta;	.
!	!	!	!	!	!	!LO:DY:a
8AL 8C'>\	16a'/LL	8f\L	.	16a/LL	mło-	<
.	16b'/	.	.	16b/JJ	.	.
8AJ 8C'>\	16cc'/	8f\J	.	16cc\LL	-dzian,	.
.	16dd'/JJ	.	.	16dd\JJ	.	[[
=80	=80	=80	=80	=80	=80	=80
8GL 8C'>\	(4ee^^/	8e\L	.	4ee^\	dziew-	.
8GJ 8C'>\	.	8e\	.	.	.	.
8G#XL 8E'>\	8b/L)	8d\	.	8dd\	-czę,	.
8G#J 8E'>\	8e/J	8d\J	.	8b\	nie-	.
*	*v	*v	*	*	*	*
=81	=81	=81	=81	=81	=81
8A'>\L	8ccL 8e 8c'/	.	8cc\L	-wia-	.
8Gn'>\	8b 8e'/	.	8b\J	.	.
8F#X'>\	8a 8e'/	.	8a/	-sta	.
8D'>\J	8ddJ 8d'/	.	8dd\	przed	.
=82	=82	=82	=82	=82	=82
8G\	8r	.	8b\	ludź-	.
8r	8b 8g 8d/	.	8b\	-mi	.
8D\	8r	.	16a/LL	cu-	.
.	.	.	16g/JJ	.	.
8r	8a 8f#X 8d 8c/	.	16a/LL	-dzej	.
.	.	.	16b/JJ	.	.
=83	=83	=83	=83	=83	=83
8GG\	8r	.	8g/L	zie-	.
8r	8g 8d 8B/	.	8d/J	.	.
8AA'<\L	8fn'>/L	.	8f/	-mi,	.
8AA'<\J	8cJ 8F<'>/	.	8c/	we-	.
!!LO:LB:g=original
=84	=84	=84	=84	=84	=84
*	*^	*	*	*	*
4GG^^>\	8rA<	4e^/	.	8e/	-stchnie-	.
.	8c< 8G</	.	.	8e/	-niem	.
.	.	8qe/	.	.	.	.
8GGG'>\L	8rA<	(16d/LL	.	8d/	i	.
.	.	16c/)	.	.	.	.
8GG'>\J	8B< 8F</	16d'/	.	8d/	ga-	.
.	.	16e'/JJ	.	.	.	.
*	*v	*v	*	*	*	*
=85	=85	=85	=85	=85	=85
8CC'\	8c 8E</	.	8c/	-wę-	.
8GL 8E 8C'\	8r	.	8c/	-dą	.
8G 8E 8C'\	16c'/LL	.	16c/LL	sła-	.
.	16d'/	.	16d/JJ	.	.
8GJ 8E 8C'\	16e'/	.	16e/LL	-wić	.
.	16f'/JJ	.	16f/JJ	.	.
=86	=86	=86	=86	=86	=86
*	*^	*	*	*	*
8GL 8C'\	(4g^^/	8e\L	.	4g/	lir-	.
8G 8C'\	.	8e\	.	.	.	.
8G 8C'\	8a'/L)	8f\	.	8a/	-ni-	.
8GJ 8C'\	8b'/J	8fJ 8d\	.	8b\	-ka	.
=87	=87	=87	=87	=87	=87	=87
!	!	!	!	!	!	!LO:HP:a
8GL 8C'\	8cc'/L	8e\L	.	8cc\	bę-	<
8c 8C'\	8g'/J	8e\J	.	8g/	-dą,	.
8A 8C'\	16a'/LL	8f\L	.	16a/LL	sła-	.
.	16b'/	.	.	16b/JJ	.	.
8AJ 8C'\	16cc'/	8f\J	.	16cc\LL	-wić	[
.	16dd'/JJ	.	.	16dd\JJ	.	.
=88	=88	=88	=88	=88	=88	=88
!	!	!	!	!	!	!LO:DY:a
!	!	!	!	!	!	!LO:HP:a
8GL 8C'\	(4ee^^/	8e\L	.	4ee\	lir-	f >
8c 8G'\	.	8e\	.	.	.	.
8G#X 8E'\	8dd'/L)	8e\	.	8dd\	-ni-	]]
8BJ 8G#'\	8e'/J	8d\J	.	8b\	-ka	.
!!LO:PB:g=original
=89	=89	=89	=89	=89	=89	=89
*^	*	*	*	*	*	*
8ryy	8A'\	8cc'/	8e\	.	8cc\	bę-	.
4c/	(>16A\LL	(16cc/LL	(>8e\L	.	16cc\LL	-dą	.
.	16Gn\J	16b/J	.	.	16b\JJ	.	.
.	8F#X\J)	8a/J)	8d\J)	.	8a/	co	.
8A/	8D\	8dd/	8f#X'>\	.	8dd\	żył	.
*v	*v	*	*	*	*	*	*
*	*v	*v	*	*	*	*
=90	=90	=90	=90	=90	=90
8G\	8r	.	4b\	i	.
8r	8b 8g 8d'/	.	.	.	.
8D\	8r	.	16a/LL	śpie-	.
.	.	.	16g/JJ	.	.
8r	8a 8f#X 8c'/	.	16a/LL	-wał	.
.	.	.	16b/JJ	.	.
=91	=91	=91	=91	=91	=91
8E'\L	8gL 8B'/	.	8g/	z nie-	.
8BB'\	8dJ 8G'/	.	8d/	-mi,	.
8C'\	8e'/L	.	4r	.	.
8AA'\J	8aJ 8c'/	.	.	.	.
=92	=92	=92	=92	=92	=92
*	*^	*	*	*	*
8D'\	4g^^/	8r	.	2r	.	.
8r	.	8d 8B\	.	.	.	.
.	8qg/	.	.	.	.	.
8DD'/	(16f#X/LL	8r	.	.	.	.
.	16e/)	.	.	.	.	.
8r	16f#'/	8c 8A\	.	.	.	.
.	16a'/JJ	.	.	.	.	.
*	*v	*v	*	*	*	*
=93	=93	=93	=93	=93	=93
8GG'\L	4g 4B/	>	4r	.	.
8G'\	.	.	.	.	.
!	!LO:TX:i:a:t=un poco più lento	!	!LO:TX:i:a:t=un poco più lento	!	!
8G'\	4r	]]	8g/	i	.
8G'\J	.	.	8dd\	po-	.
=94	=94	=94	=94	=94	=94
8GG'\L	(4cc 4e-X^/	p	4cc\	-wio-	.
8G'\	.	.	.	.	.
8G'\	8b-XL 8d/	.	8b-X\	-dą	.
8G'\J	8aJ 8c/	.	8a/	przy-	.
!!LO:LB:g=original
=95	=95	=95	=95	=95	=95
*	*^	*	*	*	*
8GG'\L	4.g/	4.B-X\	.	8b-X\	-by-	.
8G'\	.	.	.	8g/	-szy	.
8G'\	.	.	.	8b-\	do	.
8G'\J	8g/)	8ryy	.	8dd\	Cmen-	.
=96	=96	=96	=96	=96	=96	=96
8GG'\L	[2g/	(4e-X^\	.	8dd\L	-tar-	.
8G'\	.	.	.	8cc\J	.	.
8G'\	.	8d\L	.	8b-X\	-nej	.
8G'\J	.	8c\J	.	8a/	za-	.
=97	=97	=97	=97	=97	=97	=97
(8GG/L	2g/]	4B-X\	.	8b-X\	-ci-	.
8D/)	.	.	.	8g/	-szy,	.
8BB-X'/	.	4d\)	.	8g/	gdzie	.
8GG'/J	.	.	.	8b-\	przy	.
*	*v	*v	*	*	*	*
=98	=98	=98	=98	=98	=98
2C/	(>2a-X 2e-X 2c/	.	4a-X/	soś-	.
.	.	.	8g/	-nie	.
.	.	.	8a-/	trzy	.
=99	=99	=99	=99	=99	=99
2D\	2a-X 2f 2B-X/	.	(4.cc\	Krzy-	.
.	.	.	16b-X/LL	.	.
.	.	.	16a-X/JJ)	.	.
!!LO:LB:g=original
=100	=100	=100	=100	=100	=100
(<(8EE-X/L	(>4.g 4.G^/)	.	4g/	-że;	.
!	!LO:TX:i:a:t=meno mosso	!	!	!	!
8BB-X/	.	.	.	.	.
8E-X/)	.	.	4r	.	.
8D/J	8f#X 8A/	.	.	.	.
=101	=101	=101	=101	=101	=101
8GG\L	8fnL 8Bn/	.	4r	.	.
8C\	8e 8c/	.	.	.	.
8BB\	8d 8E</	.	(8g/L	i	.
8AA\J)	8cJ 8F#X</)	.	8a/J)	.	.
=102	=102	=102	=102	=102	=102
!	!LO:TX:i:a:t=Colla parte	!	!LO:TX:i:a:t=ad lib.	!	!
[2D (<2GG\	(2B< 2G</	.	8b\	rzek-	.
.	.	.	8b\	-ną	.
.	.	.	8cc\	wzno-	.
.	.	.	8dd\	-sząc	.
=103	=103	=103	=103	=103	=103
2D] 2DD\	2d< 2A< 2F</	.	8dd\	gło-	.
.	.	.	8a/	-wy:	.
.	.	.	8a/	„tu	.
.	.	.	8b\	nasz	.
=104	=104	=104	=104	=104	=104
2E 2AA\	2c< 2A</	.	4cc\	lir-	.
.	.	.	8dd\	-nik	.
.	.	.	8ee\	wio-	.
=105	=105	=105	=105	=105	=105
4E 4EE\	4e< 4B< 4G</	.	8ee^\	-sko-	.
.	.	.	8b\	-wy	.
4FF\	4d< 4A< 4F</	.	(8.dd^\	sko-	.
.	.	.	16a/)	-nał	.
!!LO:LB:g=original
=106	=106	=106	=106	=106	=106
4GG\	4c< 4G< 4E</	.	4cc\	gra-	.
4GG#X\	4B< 4F< 4D</	.	8b\	-jąc	.
.	.	.	8b\	na	.
=107	=107	=107	=107	=107	=107
*	*^	*	*	*	*
!	!	!	!	!LO:TX:i:a:t=lento	!	!
8AA\L	4c</	8E<L 8C</	.	8cc\	li-	.
8EE\	.	8G</J	.	8ee\	-rze,	.
8FF\	8dL 8A</	4ryy	.	16dd\LL	sko-	.
.	.	.	.	16cc\JJ	.	.
8FF#X\J	8d#XJ 8c 8A</	.	.	16b/LL	-nał	.
.	.	.	.	16a/JJ	.	.
*	*v	*v	*	*	*	*
=108	=108	=108	=108	=108	=108
4GG\	4e 4c 4G</	.	8g/L	gra-	.
.	.	.	16b/L	.	.
!	!	!	!LO:TX:i:a:t=rallent.	!	!
.	.	.	16a/JJ	.	.
[>4GG 4GGG\	4B< 4G< 4F< 4D</	.	16g/LL	-jąc	.
.	.	.	16f/JJ	.	.
.	.	.	16e/LL	na	.
.	.	.	16d/JJ	.	.
=109	=109	=109	=109	=109	=109
!	!LO:TX:B:a:t=Allegro.	!	!LO:TX:B:a:t=Allegro.	!	!
8GG\] 8CC\)	8c< 8G< 8E</)	.	8c/	li-	.
8cL 8C'\	8ccL 8g 8e'\	ff	8c/	-rze.”	.
8G 8GG'\	8ee 8cc 8g'\	.	4r	.	.
8EJ 8EE'\	8ggJ 8ee 8cc'\	.	.	.	.
=110	=110	=110	=110	=110	=110
4C 4CC/	4ccc 4gg 4ee 4cc'\	.	2r	.	.
4c 4G 4E 4C'\	4ee 4cc 4g 4e'>/	.	.	.	.
=111	=111	=111	=111	=111	=111
2C 2CC;/	2c;/	.	2r;	.	.
==	==	==	==	==	==
*-	*-	*-	*-	*-	*-
!!!system-decoration: p1{(p2)}
!!!ENC: Andrzej Gręziak
!!!END: 2022-08-24
!!!ENC: Kamil Watkowski
!!!END: 2022-09-24
!!!RDF**kern: > = above
!!!RDF**kern: < = below
!!!YEC: Copyright 2022 Narodowy Instytut Fryderyka Chopina (https://polishscores.org)
!!!YEM: License CC-BY-4.0 (https://creativecommons.org/licenses/by/4.0)
